X:1
T:O sacrum convivium - Bernabei
T:James Gibb editions
T:#
%%score [ 1 2 3 4 ]
L:1/8
Q:1/4=180
M:none
K:C
V:1 treble nm="Soprano" snm="S"
V:2 treble nm="Alto" snm="A"
V:3 treble-8 nm="Tenor" snm="T"
V:4 bass nm="Bass" snm="B"
V:1
 d8 e8 |"^O sacrum convivium" e4 d8 c4- | c2 c2 B4 G4 G4 | %3
w: O sa-|crum con- vi\-|* vi- um, in quo|
 (A4 G4"^Giuseppe Antonio Bernabei\n(1649-1732)" d4) d4 | (d6 cB A6) A2 | B4 B4 B6 B2 | %6
w: Chri\- * * stus|su\- * * * mi-|tur; re- co- li-|
 B4 c4 A6 A2 | G4 G4 d6 d2 | G8 A6 A2 | G4 G4 G8 | G16 | G4 B4 d4 A4 | e6 e2 A4 d4 | B4 G8 G4 | %14
w: tur me- mo- ri-|a, me- mo- ri-|a pas- si-|o- nis e-|ius:|mens im- ple- tur|gra- ti- a, et|fu- tu- rae|
 (G6 F2 E4) A4 | D12 d4- | d4 ^c4 d8 | B4 (G6 A2 B4) | E4 c8 B4 | c8 A8 | (G2 A2 B2 ^c2 d8) | %21
w: glo\- * * ri-|ae no\-|* bis pi-|gnus da\- * *|tur, no- bis|pi- gnus|da\- * * * *|
 B4 d8 ^c4 | d4 B4 A8 | B16 ||[M:3/1][Q:1/4=360] z16 x8 | z16 x8 | %26
w: tur, no- bis|pi- gnus da-|tur.|||
[M:3/1][Q:1/4=360][Q:1/4=360][Q:1/4=360][Q:1/4=360] z16 x8 | z16 x8 | G8 d8 e8 | %29
w: ||Al- le- lu-|
 (d4 c4 B4 G4 c4 B2 A2 | B8) c8 A8 | A24 | A8 ^F8 G8 | ^F8 D4 (d2 c2 B4) (A2 G2) | A8 B8 G4 c4 | %35
w: ia, * * * * * *|* al- le-|lu-|ia, al- le-|lu- ia, al\- * * le\- *|lu- ia, al- le-|
 B16 A8 | G8 d8 e8 | (d4 c4 B4 G4 c4 B2 A2 | B8) c12 d4 | B8 c8 A4 d4 | G8 G8 G8 | (^F8 E4 F4) G8 | %42
w: lu- ia,|al- le- lú-|ia, * * * * * *|* al- le-|lu- ia, al- le-|lu- ia, al-|le\- * * lu-|
 ^F8 B6 d2 c4 c4 |[Q:1/4=358] (B2[Q:1/4=356] A2)[Q:1/4=354] (B2[Q:1/4=352] G2)[Q:1/4=342] A16 | %44
w: ia, al- le- lu- ia,|al\- * le\- * lu-|
[Q:1/4=332] B8[Q:1/4=327] G12[Q:1/4=323] G4 |[Q:1/4=320] G8[Q:1/4=316] A8[Q:1/4=313] ^F8 | %46
w: ia, al- le-|lu- ia, al-|
[Q:1/4=307] G16[Q:1/4=301] ^F8 |[Q:1/4=300] G24 |] %48
w: le- lu-|ia.|
V:2
 G8 G8 | G4 G4 G6 G2 | G8 D4 E4 | D4 D4 (^F2 G2 A4- | A2 G^F G8) F4 | G4 G4 G6 G2 | %6
w: O sa-|crum con- vi- vi-|um, in quo|Chri- stus su\- * *|* * * * mi-|tur; re- co- li-|
 G4 G4 !courtesy!=F6 F2 | D4 E4 F6 F2 | E4 G6 F2 F4- | F4 E4 D8 | E4 C4 E4 G4 | D8 D8- | %12
w: tur me- mo- ri-|a, me- mo- ri-|a pas- si- o\-|* nis e-|ius: mens im- ple-|tur gra\-|
 D4 ^C4 D8 | z4 G4 E4 C4- | C4 B,4 (C8- | C4 B,4 A,6) A,2 | B,4 E4 A,4 D4 | D4 C4 D4 G4- | %18
w: * ti- a,|et fu- tu\-|* rae glo\-|* * * ri-|ae, fu- tu- rae|glo- ri- ae, no\-|
 G4 ^F4 G8 | E8 (D6 C2 | B,2 A,2 G,4) A,4 D4- | D4 B,4 E8 | ^F4 (G8 F4) | G16 ||[M:3/1] z16 x8 | %25
w: * bis pi-|gnus da\- *|* * * tur, no\-|* bis pi-|gnus da\- *|tur.||
 z16 x8 |[M:3/1] D8 G8 A8 | (G4 F4 E4 C4 F4 E2 D2 | E8) D8 C8 | (D8 G8 ^F8) | %30
w: |Al- le- lu-|ia, * * * * * *|* al- le-|lu\- * *|
 G8 G8 !courtesy!=F8- | F8 E8 E8 | D8 A8 B8 | (A4 G4 ^F4 D4 G4 F2 E2 | ^F8) G12 A4 | G16 E8 | %36
w: ia, al- le\-|* lu- ia,|al- le- lu-|ia, * * * * * *|* al- le-|lu- ia,|
 E8 D8 C8 | D8 z8 z8 | D8 G8 A8 | (G4 F4 E4 C4 F4 E2 D2 | E8) D12 D4 | (D16 ^C8) | D8 G12 A4 | %43
w: al- le- lu-|ia,|al- le- lu-|ia, * * * * * *|* al- le-|lu\- *|ia, al- le-|
 D24 | D8 D12 D4 | E8 E8 D8 | D8 D16 | D24 |] %48
w: lu-|ia, al- le-|lu- ia, al-|le- lu-|ia.|
V:3
 B8 B8 | c4 d4 e6 e2 | d4 d4 B4 c4- | c4 B4 A6 A2 | B4 d8 d4 | d4 d4 d6 d2 | d4 e4 (c2 BA d2 c2 | %7
w: O sa-|crum con- vi- vi-|um, in quo Chri\-|* stus su- mi-|tur, su- mi-|tur; re- co- li-|tur me- mo\- * * * *|
 B4 c8) B4 | c4 c6 c2 d4 | B4 (c8 B4) | c12 G4 | B4 d4 A8 | G12 ^F4 | G4 B4 c4 e4 | d4 (G8 ^F4 | %15
w: * * ri-|a, pas- si- o-|nis e\- *|ius: mens|im- ple- tur|gra- ti-|a, et fu- tu-|rae glo\- *|
 G6 G2 D8 | z4 G8 ^F4 | G4 E4 D8 | C8 G8 | G4 G8 ^F4 | G4 E4 D8 | G16 | A4 D4 d8 | d16 || %24
w: * ri- ae,|no- bis|pi- gnus da-|tur, da-|tur, no- bis|pi- gnus da-|tur,|pi- gnus da-|tur.|
[M:3/1] G8 d8 e8 | d4 c4 B4 G4 c4 B2 A2 |[M:3/1][K:treble-8] B4 A4 G4 c2 B2 A4 d4 | B8) c12 B4 | %28
w: Al- le- lu-|ia, * * * * * *||* al- le-|
 c8 G12 A4 | (B4 c4 d4 e4) c8 | d8 e8 c8 | (d16 ^c8) | d24 | z8 z8 G8 | d16 e8 | %35
w: lu- ia, al-|le\- * * * lu-|ia, al- le-|lu\- *|ia,|al-|le- lu-|
 d4 c4 B4 G4 c4 B2 A2 | B8 (G12 A4 | B4 A4 G12) ^F4 | G8 C4 c4 A4 F4 | G8 c12 B4 | c16 B8 | %41
w: ia, * * * * * *|* al\- *|* * * le-|lu- ia, al- le- lu-|ia, al- le-|lu- ia,|
 A8 G16 | A8 G8 E8 | G16 ^F8 | G8 B12 B4 | c8 c8 A8 | B8 A16 | B24 |] %48
w: al- le-|lu- ia, al-|le- lu-|ia, al- le-|lu- ia, al-|le- lu-|ia.|
V:4
 G,8 E,8 | C,4 B,,4 C,6 C,2 | G,,8 G,4 E,4 | ^F,4 G,4 (D,6 C,2 | B,,6 A,,G,, D,6) D,2 | %5
w: O sa-|crum con- vi- vi-|um, in quo|Chri- stus su\- *|* * * * mi-|
 G,,4 G,4 G,6 G,2 | G,4 C,4 (F,8- | F,4 E,4 D,6) D,2 | C,8 F,6 F,2 | G,4 C,4 G,,8 | C,8 C,4 E,4 | %11
w: tur; re- co- li-|tur me- mo\-|* * * ri-|a, pas- si-|o- nis e-|ius: mens im-|
 G,12 F,4 | E,6 E,2 D,8 | G,4 E,4 C,8 | G,,8 A,,6 A,,2 | G,,4 G,8 ^F,4 | G,4 E,4 D,8 | %17
w: ple- tur|gra- ti- a,|et fu- tu-|rae glo- ri-|ae, no- bis|pi- gnus da-|
 G,,4 C,8 B,,4 | C,4 A,,4 G,,8 | C,8 D,8 | G,,4 G,8 ^F,4 | G,8 E,8 | D,16 | G,,16 || %24
w: tur, no- bis|pi- gnus da-|tur, da-|tur, no- bis|pi- gnus|da-|tur.|
[M:3/1] z16 x8 | D,8 G,8 A,8 |[M:3/1] (G,4 F,4 E,4 C,4 F,4 E,2 D,2 | E,8) C,8 D,8 | C,8 B,,8 C,8 | %29
w: |Al- le- lu-|ia, * * * * * *|* al- le-|lu- ia, al-|
 G,16 A,8 | (G,4 F,4 E,4 D,2 C,2) F,8 | D,8 A,16 | D,16 G,,8 | D,16 E,8 | %34
w: le- lu-|ia, * * * * al-|le- lu-|ia, al-|le- lu-|
 (D,4 C,4 B,,4 G,,4 C,4 B,,2 A,,2 | B,,8) G,,8 A,,8 | E,8 B,,8 C,8 | G,16 A,8 | %38
w: ia, * * * * * *|* al- le-|lu- ia, al-|le- lu-|
 (G,4 F,4 E,4 C,4 F,4 E,2 D,2 | E,8) C,8 D,8 | C,8 G,,8 G,,8 | D,8 E,16 | %42
w: ia, * * * * * *|* al- le-|lu- ia, al-|le- lu-|
 (D,4 C,4 B,,4 G,,4 C,4 B,,2 A,,2) | B,,4 G,,4 D,16 | G,,8 G,,8 G,,8 | C,8 A,,8"^4-" D,8 | %46
w: ia, * * * * * *|al- le- lu-|ia, al- le-|lu- ia, al-|
 G,,8 D,16 | G,,24 |] %48
w: le- lu-|ia.|

